X: 21371
M: 2/4
L: 1/16
K: D
V: 1 name="4"
fe |\
d2A2F2A2 | d4 z2cd | e2e2e2e2 | e4 z2Ad |\
f2f2f2f2 | f2(gf) e2(fe) | d2d2 cdec | d4 z2 H|]
dc |\
d2dd d2d2 | d6 A2 | d2A2 F2D2 | A4 z2AA |\
d2dd d2d2 | d4 z2f2 | edcB cBA^G | A4 "^D.C."z2 |]


